images/svg/book-icon.svg

<svg width="33" height="34" viewBox="0 0 33 34" fill="none" xmlns="http://www.w3.org/2000/svg">
<path fill-rule="evenodd" clip-rule="evenodd" d="M15.2455 0.302095C16.0352 -0.100698 16.9648 -0.100698 17.7545 0.302094L31.4493 7.28692C33.5169 8.34144 33.5169 11.3512 31.4493 12.4057L29.4544 13.4232L31.4493 14.4406C33.5169 15.4951 33.5169 18.5049 31.4493 19.5594L29.4544 20.5769L31.4493 21.5943C33.5169 22.6488 33.5169 25.6586 31.4493 26.7131L17.7545 33.6979C16.9648 34.1007 16.0352 34.1007 15.2455 33.6979L1.55067 26.7131C-0.51689 25.6586 -0.516887 22.6488 1.55067 21.5943L3.54556 20.5769L1.55067 19.5594C-0.51689 18.5049 -0.516887 15.4951 1.55067 14.4406L3.54556 13.4232L1.55067 12.4057C-0.516892 11.3512 -0.516887 8.34144 1.55067 7.28692L15.2455 0.302095ZM7.3238 12.1509C7.3147 12.1462 7.30555 12.1415 7.29635 12.137L2.80518 9.8463L16.5 2.86148L30.1948 9.8463L25.7034 12.1371C25.6944 12.1416 25.6854 12.1461 25.6764 12.1508L16.5 16.8311L7.3238 12.1509ZM6.68185 15.0228L2.80518 17L7.29618 19.2906L7.32397 19.3047L16.5 23.9848L25.6764 19.3046L25.7035 19.2907L30.1948 17L26.3181 15.0228L17.7545 19.3905C16.9648 19.7933 16.0352 19.7933 15.2455 19.3905L6.68185 15.0228ZM2.80518 24.1537L6.68185 22.1765L15.2455 26.5442C16.0352 26.947 16.9648 26.947 17.7545 26.5442L26.3181 22.1765L30.1948 24.1537L16.5 31.1385L2.80518 24.1537Z" fill="#F58A07"/>
</svg>

<svg xmlns="http://www.w3.org/2000/svg" width="33" height="34" fill="none"><path fill="#F58A07" fill-rule="evenodd" d="M15.245.302a2.756 2.756 0 0 1 2.51 0l13.694 6.985c2.068 1.054 2.068 4.064 0 5.119l-1.995 1.017 1.995 1.018c2.068 1.054 2.068 4.064 0 5.118l-1.995 1.018 1.995 1.017c2.068 1.055 2.068 4.065 0 5.12l-13.695 6.984c-.79.403-1.719.403-2.509 0L1.551 26.713c-2.068-1.054-2.068-4.064 0-5.119l1.995-1.017-1.995-1.018c-2.068-1.054-2.068-4.064 0-5.118l1.995-1.018-1.995-1.017c-2.068-1.055-2.068-4.065 0-5.12L15.245.303ZM7.324 12.151a1.411 1.411 0 0 0-.028-.014l-4.49-2.29L16.5 2.86l13.695 6.985-4.492 2.291-.027.014-9.176 4.68-9.176-4.68Zm-.642 2.872L2.805 17l4.491 2.29.028.015 9.176 4.68 9.176-4.68.027-.014L30.195 17l-3.877-1.977-8.564 4.367c-.79.403-1.719.403-2.509 0l-8.563-4.367Zm-3.877 9.13 3.877-1.976 8.563 4.367c.79.403 1.72.403 2.51 0l8.563-4.367 3.877 1.977L16.5 31.139 2.805 24.154Z" clip-rule="evenodd"/></svg>
